X: 17
T: Anatomie Vivante
B:Goulding and d'Almaine's Twenty-four Country Dances For the year 1826.
L:1/8
M:6/8
Z:Richard Robinson <URL:http://www.qualmograph.org.uk/contact.html>
F:http://richardrobinson.tunebook.org.uk/Tune/3563
K:Bb
% - - - - - - - - - - - - - - - - - - - - - - - - -
(FG).F |\
(d2c) (d2c) | B2d (FG)F | (e2d) (e2d) | c2f (FG)F |\
d2c   B2A   | G2=B cde  | dcB    BcA  | B2z ||
(cd)c |\
a2g f2=e | f2c cdc | a2g f2=e | f2z (f=e)d |\
c2c (dc)B | A2A (cB)A | Gdc BAG | F2 !D.C.!F :|
% - - - - - - - - - - - - - - - - - - - - - - - - -

